libs/ui/packages/crypto-icons/src/svg/ETH.svg

<svg width="24" height="24" viewBox="0 0 24 24" fill="none">
<path opacity="0.6" d="M11.9985 3.00189V9.65439L17.6212 12.1669L11.9985 3.00189Z" fill="#0EBDCD"/>
<path d="M11.9985 3.00189L6.375 12.1669L11.9985 9.65439V3.00189Z" fill="#0EBDCD"/>
<path opacity="0.6" d="M11.9985 16.4779V20.9981L17.625 13.2139L11.9985 16.4779Z" fill="#0EBDCD"/>
<path d="M11.9985 20.9981V16.4771L6.375 13.2139L11.9985 20.9981Z" fill="#0EBDCD"/>
<path opacity="0.2" d="M11.9985 15.4316L17.6212 12.1669L11.9985 9.65588V15.4316Z" fill="#0EBDCD"/>
<path opacity="0.6" d="M6.375 12.1669L11.9985 15.4316V9.65588L6.375 12.1669Z" fill="#0EBDCD"/>
</svg>

<svg width="24" height="24" viewBox="0 0 24 24" fill="none"><path fill="#0ebdcd" d="M11.999 3.002v6.652l5.622 2.513z" opacity=".6"/><path fill="#0ebdcd" d="m11.999 3.002-5.624 9.165 5.624-2.513z"/><path fill="#0ebdcd" d="M11.999 16.478v4.52l5.626-7.784z" opacity=".6"/><path fill="#0ebdcd" d="M11.999 20.998v-4.52l-5.624-3.264z"/><path fill="#0ebdcd" d="m11.999 15.432 5.622-3.265L12 9.656z" opacity=".2"/><path fill="#0ebdcd" d="m6.375 12.167 5.624 3.265V9.656z" opacity=".6"/></svg>
